src/images/single-assets/NILE.svg

<svg width="100" height="100" viewBox="0 0 100 100" fill="none" xmlns="http://www.w3.org/2000/svg">
<path d="M100 50C100 77.6142 77.6142 100 50 100C22.3858 100 0 77.6142 0 50C0 22.3858 22.3858 0 50 0C77.6142 0 100 22.3858 100 50Z" fill="#295B7D"/>
<path fill-rule="evenodd" clip-rule="evenodd" d="M50 95.3125C75.0254 95.3125 95.3125 75.0254 95.3125 50C95.3125 24.9746 75.0254 4.6875 50 4.6875C24.9746 4.6875 4.6875 24.9746 4.6875 50C4.6875 75.0254 24.9746 95.3125 50 95.3125ZM50 100C77.6142 100 100 77.6142 100 50C100 22.3858 77.6142 0 50 0C22.3858 0 0 22.3858 0 50C0 77.6142 22.3858 100 50 100Z" fill="#1F282F"/>
<path d="M49.9355 29L43.9845 35.0559L49.9355 41.1118L55.8866 35.0559L49.9355 29Z" fill="#B7EEFA"/>
<path d="M30.0582 41.5499L23.7188 35.3831V65.8096H31.2188V52.6888C35.6491 56.2515 40.4059 59.3821 45.4273 62.0354C46.3833 62.5425 47.3632 63.0373 48.3669 63.5199C55.8193 67.1077 63.7239 69.6249 71.8549 70.9997L72.7 65.8095H76.2187V42.881H68.7187V62.5971C62.8068 61.2571 57.055 59.2498 51.5706 56.6095L51.569 56.6087C50.6492 56.1664 49.7555 55.715 48.8878 55.2547L48.8851 55.2533L48.8823 55.2519C42.0021 51.6167 35.664 47.0032 30.0582 41.5499Z" fill="#B7EEFA"/>
</svg>

<svg xmlns="http://www.w3.org/2000/svg" width="100" height="100" fill="none"><path fill="#295B7D" d="M100 50c0 27.614-22.386 50-50 50S0 77.614 0 50 22.386 0 50 0s50 22.386 50 50"/><path fill="#1F282F" fill-rule="evenodd" d="M50 95.313c25.025 0 45.313-20.288 45.313-45.313S75.025 4.688 50 4.688 4.688 24.975 4.688 50 24.975 95.313 50 95.313M50 100c27.614 0 50-22.386 50-50S77.614 0 50 0 0 22.386 0 50s22.386 50 50 50" clip-rule="evenodd"/><path fill="#B7EEFA" d="m49.936 29-5.952 6.056 5.951 6.056 5.952-6.056z"/><path fill="#B7EEFA" d="m30.058 41.55-6.34-6.167V65.81h7.5V52.689a89 89 0 0 0 17.149 10.83A88 88 0 0 0 71.855 71l.845-5.19h3.519V42.882h-7.5v19.716A80.6 80.6 0 0 1 51.57 56.61h-.002a76 76 0 0 1-2.681-1.354l-.003-.002-.003-.001A81.8 81.8 0 0 1 30.058 41.55"/></svg>
